svgs/sharp-solid/mobile-retro.svg

<svg xmlns="http://www.w3.org/2000/svg" viewBox="0 0 320 512"><!--! Font Awesome Pro 6.6.0 by @fontawesome - https://fontawesome.com License - https://fontawesome.com/license (Commercial License) Copyright 2024 Fonticons, Inc. --><path d="M0 0L320 0l0 512L0 512 0 0zM64 128l0 128 192 0 0-128L64 128zM184 304l-48 0 0 48 48 0 0-48zm-48 80l0 48 48 0 0-48-48 0zm128 0l-48 0 0 48 48 0 0-48zM56 384l0 48 48 0 0-48-48 0zm208-80l-48 0 0 48 48 0 0-48zM56 304l0 48 48 0 0-48-48 0zM128 48l-16 0 0 32 16 0 64 0 16 0 0-32-16 0-64 0z"/></svg>

<svg xmlns="http://www.w3.org/2000/svg" viewBox="0 0 320 512"><!--! Font Awesome Pro 6.4.0 by @fontawesome - https://fontawesome.com License - https://fontawesome.com/license (Commercial License) Copyright 2023 Fonticons, Inc. --><path d="M0 0H320V512H0V0zM64 128V256H256V128H64zM184 304H136v48h48V304zm-48 80v48h48V384H136zm128 0H216v48h48V384zM56 384v48h48V384H56zm208-80H216v48h48V304zM56 304v48h48V304H56zM128 48H112V80h16 64 16V48H192 128z"/></svg>
